X: 28211
T: Mrs. Crowley's
R: polka
M: 2/4
K: Gmajor
|:DG EG/E/|DG EG|DG AG/A/|BA A>B|
DG EG/E/|DG E/D/E/G/|DG AB/c/|1 BG G2:|2 BG G>B||
|:dB gB|dB gB|dB gB|c/B/A A>B|
dB gB|1 dB gB|G2 A>c|BG G>B:|2 dB g2|G2 A>c|BG G2||

